**kern	**kern	**dynam
*part1	*part1	*part1
*staff2	*staff1	*
*I"Piano	*	*
*clefF4	*clefF4	*
*k[]	*k[]	*
=1	=1	=1
.	(8qc/	.
*	*^	*
8FF'L 8F	8B'L)	8G'L	.
8r	8A'	8rA	.
8CC'J 8C	8B'J	8F'J	.
*	*v	*v	*
=	=	=
.	(8qB/	[ f
8EE'L 8E	8G) 8c	.
8r	8r	.
8CC'J 8C	8r	.
=	=	=
.	(8qB/	>
8EE'L 8E	8G) 8c	.
8r	8r	.
8CC'J 8C	8r	.
=	=	=
.	(8qB/	.
8EE'L 8E	8G) 8c	.
8r	8r	.
8CC'J 8C	8r	.
=	=	=
.	(8qB/	.
8EE'L 8E	8G) 8c	.
8r	8r	.
8CC'J 8C	8r	.
=	=	=
.	(8qB/	] p
8EE'L 8E	8G) 8c	.
8r	8r	.
8CC'J 8C	8r	.
=	=	=
.	(8qB/	.
8FF'L 8F	8A) 8c	.
8r	8r	.
8CC'J 8C	8r	.
=	=	=
*-	*-	*-
!!!system-decoration: {(s1,s2)}
